X: 318
T: Bugich's  Khosidl #1
R: khusidl
Q: 1/4=80
B: German Goldenshteyn "Shpilt klezmorimlach klingen zoln di gesalach" New York 2003 v.3 #18
Z: 2012 John Chambers <jc:trillian.mit.edu>
M: 2/4
L: 1/16
K: Em
%%slurgraces
%%graceslurs
|:\
{^D}E2E2 (GFEF) | (TG3F) E4 | GABc BAGA | B2z2 "^>"e4 |\
G2G2 GBAG |  FED2- D2D2 | dcBA GAFG |[1 E8 :|[2 E4- EEAB ||
|:\
c2A2- AEAB | c2A2- AEAB | c2A2 dcBA | GAB2- BEGA |\
B2G2- GEGA | B2G2- GEGA | B2E2 {d}cBAG |[1 A4- AEAB :|[2 A8 |]
